icon/fa/tent-arrows-down.svg

<svg xmlns="http://www.w3.org/2000/svg" viewBox="0 0 576 512"><!--! Font Awesome Free 6.1.2 by @fontawesome - https://fontawesome.com License - https://fontawesome.com/license/free (Icons: CC BY 4.0, Fonts: SIL OFL 1.1, Code: MIT License) Copyright 2022 Fonticons, Inc.--><path d="M209.8 111.9c8.9 9.9 8.1 24.2-1.7 33.9l-80 72c-9.2 8.3-23 8.3-32.16 0l-80-72c-9.847-9.7-10.646-24-1.78-33.9 8.87-9.8 24.04-10.6 33.9-1.7L88 146.1V24c0-13.25 10.75-24 24-24 13.3 0 24 10.75 24 24v122.1l39.9-35.9c9.9-8.9 24.2-8.1 33.9 1.7zm352 0c8.9 9.9 8.1 24.2-1.7 33.9l-80 72c-9.2 8.3-23 8.3-32.2 0l-80-72c-9.8-9.7-10.6-24-1.7-33.9 8.8-9.8 24-10.6 33.9-1.7l39.9 35.9V24c0-13.25 10.7-24 24-24s24 10.75 24 24v122.1l39.9-35.9c9.9-8.9 24.2-8.1 33.9 1.7zm-86.4 182.6c6.6 5.1 11 12.5 12.2 20.8l24 160c1.4 9.2-1.3 18.5-7.4 25.6-6 7-14.9 11.1-24.2 11.1h-96l-96.9-160v160H96c-9.32 0-18.17-4.1-24.25-11.1-6.08-7.1-8.78-16.4-7.4-25.6l24-160c1.24-8.3 5.63-15.7 12.25-20.8l168-128c11.5-8.7 27.3-8.7 38.8 0l168 128z"/></svg>

<svg xmlns="http://www.w3.org/2000/svg" viewBox="0 0 576 512" height="1em" width="1em">
<!--! Font Awesome Free 6.1.2 by @fontawesome - https://fontawesome.com License - https://fontawesome.com/license/free (Icons: CC BY 4.0, Fonts: SIL OFL 1.1, Code: MIT License) Copyright 2022 Fonticons, Inc.-->
  <path d="M209.8 111.9C218.7 121.8 217.9 136.1 208.1 145.8L128.1 217.8C118.9 226.1 105.1 226.1 95.94 217.8L15.94 145.8C6.093 136.1 5.294 121.8 14.16 111.9C23.03 102.1 38.2 101.3 48.06 110.2L88 146.1V24C88 10.75 98.75 0 112 0C125.3 0 136 10.75 136 24V146.1L175.9 110.2C185.8 101.3 200.1 102.1 209.8 111.9H209.8zM561.8 111.9C570.7 121.8 569.9 136.1 560.1 145.8L480.1 217.8C470.9 226.1 457.1 226.1 447.9 217.8L367.9 145.8C358.1 136.1 357.3 121.8 366.2 111.9C375 102.1 390.2 101.3 400.1 110.2L440 146.1V24C440 10.75 450.7 0 464 0C477.3 0 488 10.75 488 24V146.1L527.9 110.2C537.8 101.3 552.1 102.1 561.8 111.9H561.8zM475.4 294.5C482 299.6 486.4 307 487.6 315.3L511.6 475.3C513 484.5 510.3 493.8 504.2 500.9C498.2 507.9 489.3 512 480 512H384L287.1 352V512H96C86.68 512 77.83 507.9 71.75 500.9C65.67 493.8 62.97 484.5 64.35 475.3L88.35 315.3C89.59 307 93.98 299.6 100.6 294.5L268.6 166.5C280.1 157.8 295.9 157.8 307.4 166.5L475.4 294.5z"/>
</svg>
